svg/UnitedNationsOCHA-Humanitarian/other_clusters_safety_security_icon.svg

<svg xmlns="http://www.w3.org/2000/svg" viewBox="0 0 32 32" enable-background="new 0 0 32 32"><path fill="#407cca" d="m25.864 18.81c-1.025-2.093-2.612-3.366-6.505-3.366h-.406-.396c-1.415 0-2.214.106-3.417.486-2.084.656-9.806 9.938-9.806 9.938-.472.472-.472 1.236 0 1.708.236.235.543.353.852.353.309 0 .619-.117.854-.353l7.349-6.778c.012.174.147 7.202.147 7.202h8.839l.19-6.139.596 6.139h2.86c-.365-3.828-.855-8.576-1.157-9.19m-8.803 9.133h-2.01l6.672-11.934c.664.134 1.214.336 1.683.587l-6.346 11.347m6.069-17.652c0 2.308-1.869 4.175-4.174 4.175h-.003c-.003 0-.003 0-.006 0-2.302 0-4.172-1.867-4.172-4.175 0-.447.089-.872.217-1.273h3.961 3.959c.132.401.218.826.218 1.273m.128-5.182l-.346 3.263h-3.959-3.961l-.345-3.263 4.306-1.109 4.305 1.109"/></svg>

<?xml version="1.0" encoding="utf-8"?>
<!-- Generator: Adobe Illustrator 16.0.3, SVG Export Plug-In . SVG Version: 6.00 Build 0)  -->
<!DOCTYPE svg PUBLIC "-//W3C//DTD SVG 1.1//EN" "http://www.w3.org/Graphics/SVG/1.1/DTD/svg11.dtd">
<svg version="1.1" id="Layer_1" xmlns="http://www.w3.org/2000/svg" xmlns:xlink="http://www.w3.org/1999/xlink" x="0px" y="0px"
	 width="32px" height="32px" viewBox="0 0 32 32" enable-background="new 0 0 32 32" xml:space="preserve">
<path fill="#407CCA" d="M25.864,18.81c-1.025-2.093-2.612-3.366-6.505-3.366h-0.406h-0.396c-1.415,0-2.214,0.106-3.417,0.486
	c-2.084,0.656-9.806,9.938-9.806,9.938c-0.472,0.472-0.472,1.236,0,1.708c0.236,0.235,0.543,0.353,0.852,0.353
	c0.309,0,0.619-0.117,0.854-0.353l7.349-6.778C14.401,20.972,14.536,28,14.536,28h8.839l0.19-6.139L24.161,28h2.86
	C26.656,24.172,26.166,19.424,25.864,18.81z M17.061,27.943h-2.009l6.672-11.934c0.664,0.134,1.214,0.336,1.683,0.587L17.061,27.943
	z M23.13,10.291c0,2.308-1.869,4.175-4.174,4.175h-0.003c-0.003,0-0.003,0-0.006,0c-2.302,0-4.172-1.867-4.172-4.175
	c0-0.447,0.089-0.872,0.217-1.273h3.961h3.959C23.044,9.419,23.13,9.844,23.13,10.291z M23.258,5.109l-0.346,3.263h-3.959h-3.961
	l-0.345-3.263L18.953,4L23.258,5.109z"/>
</svg>
